X:2
T:Skyeman's Jig
T:Harmony 2
C:Duncan Johnstone
L:1/8
R:Jig
M:6/8
K:D
[|: {g}A{d}A{e}A {gef}e2 d | {g}efg {ef}e2 d | {gBd}B2 {e}G {g}G{d}G{e}G | {g}dB{d}G {gBd}B2 e |
{g}A{d}A{e}A {gef}e2 d | {g}efg {ef}e2 d | {gef}e2 d {gf}g2 G | {g}B{d}A{e}A {GAG}A2 e :|]
[| a2{GdG}a {f}g2 e | {g}edg {ef}e2 d | {gBd}B2 {e}G {g}G{d}G{e}G | {g}dB{d}G {gBd}B2 e |
 a2{GdG}a {f}g2 e | {g}edg {ef}e2 d | {gef}e2 d {gf}g2 G | {g}B{d}A{e}A {g}Ade |
 {g}d2c {g}(B3 | (B3) B3) | {G}(B3 (B3) | (B3) B3) |
 {g}A{d}A{e}A {g}(A3 | (A3) A3)  [M:9/8] | {g}(G3 G3) {g}de{A}e [M:3/4] "Slow Air Tempo" | {g}e4 {g}d<e |]

